X:1
T:183 - A Luz do Mundo
T:Letra: Philip Paul Bliss (1838-1876)
T:Trad.: Achilles Barbosa (1894-1967)
T:Música: Philip Paul Bliss (1838-1876)
M: 6/8
L: 1/8
Q:1/4=90
K:F
V:1
C | "F"FGA AGF | "C"GFG "F"A2A | c2c c2A | "F/C"A3 "C"G2C | "F"FGA AGF | "C"GFG "F"A2A | c2c c2A | "C7"G3 "F"F3 | "C"GGA G2c | "G7"=BAB "C"c3 | GGA G2c | "G7"=BAB "C"c2-"C7"Hc | "F"cAB c2"F7"A | "Bb"BAB Hd2d | "F"c2c c2A | "C7"G3 "F"F2 |]
w: 1.~Pra to-do per-di-do nas tre-vas do mal, Je-sus éa luz do mun-do! Do sol noes-plen-dor não en-con-tra ri-val; Je-sus éa luz do mun-do!     Vem pa-raa luz, pois bri-lha por ti;    Den-tro do pei-to,a-le-gre,a sen-ti;_    Ven-doa, do mal a Deus eu cor-ri;         Je-sus éa luz do mun-do!
w: 2.~Do rei-no das tre-vas nós vi-mos Je-sus; Je-sus éa luz do mun-do! An-da-mos se-gu-ros na tri-lha da cruz; Je-sus éa luz do mun-do!
w: 3.~Ó ce-gos, quea Ter-ra do mal ha-bi-tais, Je-sus éa luz do mun-do! Na Bí-blia seen-con-traes-sa luz que bus-cais; Je-sus éa luz do mun-do!
w: 4.~Do bri-lho do sol não ca-re-cem os céus; Je-sus éa luz do mun-do! Pois bri-lhao Cor-dei-ro no Tem-plo de Deus; Je-sus éa luz do mun-do!
W: 
W:
W: 1. Pra todo perdido nas trevas do mal,
W: Jesus éa luz do mundo!
W: Do sol no esplendor não encontra rival;
W: Jesus éa luz do mundo!
W: 
W:    (Estribilho)
W:    Vem para a luz, pois brilha por ti;
W:    Dentro do peito, alegre, a senti;
W:    Vendo-a, do mal a Deus eu corri;     
W:    Jesus éa luz do mundo!
W: 
W: 2. Do reino das trevas nós vimos Jesus;
W: Jesus éa luz do mundo!
W: Andamos seguros na trilha da cruz;
W: Jesus éa luz do mundo!
W: 
W:
W:
W: 3. Ó cegos, que a Terra do mal habitais,
W: Jesus éa luz do mundo!
W: Na Bíblia se encontra essa luz que buscais;
W: Jesus éa luz do mundo!
W: 
W: 4. Do brilho do sol não carecem os céus;
W: Jesus éa luz do mundo!
W: Pois brilha o Cordeiro no Templo de Deus;
W: Jesus éa luz do mundo!
W: 
W: 





